img/icons/inPDF.svg

<svg width="24" height="24" viewBox="0 0 24 24" fill="none" xmlns="http://www.w3.org/2000/svg">
<path d="M19.0002 9H16.2002C15.0801 9 14.5196 8.99997 14.0918 8.78198C13.7155 8.59024 13.4097 8.28429 13.218 7.90797C13 7.48014 13 6.9201 13 5.8V3M19 17.8V9.3255C19 8.83632 18.9996 8.59169 18.9443 8.36151C18.8953 8.15744 18.8147 7.96238 18.705 7.78343C18.5814 7.5816 18.4089 7.40864 18.063 7.06274L14.9375 3.93726C14.5916 3.59135 14.4186 3.41842 14.2168 3.29474C14.0379 3.18508 13.8428 3.10425 13.6388 3.05526C13.4086 3 13.1639 3 12.6747 3H8.2002C7.08009 3 6.51962 3 6.0918 3.21799C5.71547 3.40973 5.40973 3.71572 5.21799 4.09204C5 4.51986 5 5.07991 5 6.20001V17.8C5 18.9201 5 19.4801 5.21799 19.908C5.40973 20.2843 5.71547 20.5902 6.0918 20.782C6.51962 21 7.08009 21 8.2002 21H15.8002C16.9203 21 17.48 21 17.9078 20.782C18.2841 20.5902 18.5905 20.2843 18.7822 19.908C19.0002 19.4801 19 18.9201 19 17.8Z" stroke="#8C8D92" stroke-width="2" stroke-linecap="round" stroke-linejoin="round"/>
<path d="M7.8002 13.2C7.46883 13.2 7.2002 13.4686 7.2002 13.8V16.2C7.2002 16.5313 7.46883 16.8 7.8002 16.8C8.13156 16.8 8.4002 16.5313 8.4002 16.2V16.0003H8.80004C9.57333 16.0003 10.2002 15.3734 10.2002 14.6001C10.2002 13.8268 9.57333 13.2 8.80004 13.2H7.8002ZM8.80004 14.8003H8.4002V14.4H8.80004C8.91058 14.4 9.0002 14.4896 9.0002 14.6001C9.0002 14.7106 8.91058 14.8003 8.80004 14.8003Z" fill="#8C8D92"/>
<path d="M14.401 13.7992C14.4013 13.4682 14.6699 13.2 15.001 13.2H16.1989C16.5302 13.2 16.7989 13.4686 16.7989 13.8C16.7989 14.1313 16.5302 14.4 16.1989 14.4H15.6001L15.5996 14.8014H16.1989C16.5302 14.8014 16.7989 15.0699 16.7989 15.4014C16.7989 15.7327 16.5302 16.0014 16.1989 16.0014H15.6005L15.601 16.1984C15.6018 16.5298 15.3338 16.7991 15.0024 16.8C14.6711 16.8008 14.4018 16.5328 14.401 16.2015L14.3989 15.4006L14.401 13.7992Z" fill="#8C8D92"/>
<path d="M11.3983 13.2C11.067 13.2 10.7983 13.4686 10.7983 13.8V16.2C10.7983 16.5313 11.067 16.8 11.3983 16.8H12.0001C12.9941 16.8 13.8001 15.994 13.8001 15C13.8001 14.0059 12.9941 13.2 12.0001 13.2H11.3983ZM11.9983 15.6V14.4H12.0001C12.3314 14.4 12.6001 14.6686 12.6001 15C12.6001 15.3313 12.3314 15.6 12.0001 15.6H11.9983Z" fill="#8C8D92"/>
</svg>

<svg width="24" height="24" fill="none" xmlns="http://www.w3.org/2000/svg"><path d="M19 9h-2.8c-1.12 0-1.68 0-2.108-.218a2 2 0 0 1-.874-.874C13 7.48 13 6.92 13 5.8V3m6 14.8V9.325c0-.489 0-.733-.056-.963-.049-.205-.13-.4-.239-.579-.124-.201-.296-.374-.642-.72l-3.125-3.126c-.346-.346-.52-.519-.721-.642a2 2 0 0 0-.578-.24C13.409 3 13.164 3 12.675 3H8.2c-1.12 0-1.68 0-2.108.218a2 2 0 0 0-.874.874C5 4.52 5 5.08 5 6.2v11.6c0 1.12 0 1.68.218 2.108a2 2 0 0 0 .874.874C6.52 21 7.08 21 8.2 21h7.6c1.12 0 1.68 0 2.108-.218.376-.192.682-.498.874-.874C19 19.48 19 18.92 19 17.8Z" stroke="#8C8D92" stroke-width="2" stroke-linecap="round" stroke-linejoin="round"/><path d="M7.8 13.2a.6.6 0 0 0-.6.6v2.4a.6.6 0 0 0 1.2 0V16h.4a1.4 1.4 0 0 0 0-2.8h-1Zm1 1.6h-.4v-.4h.4a.2.2 0 1 1 0 .4Zm5.601-1a.6.6 0 0 1 .6-.6h1.198a.6.6 0 0 1 0 1.2H15.6v.401h.599a.6.6 0 1 1 0 1.2H15.6l.001.197a.6.6 0 0 1-1.2.003l-.002-.8.002-1.602Zm-3.003-.6a.6.6 0 0 0-.6.6v2.4a.6.6 0 0 0 .6.6H12a1.8 1.8 0 0 0 0-3.6h-.602Zm.6 2.4v-1.2H12a.6.6 0 0 1 0 1.2h-.002Z" fill="#8C8D92"/></svg>
